presets/Enchance.lrtemplate
s = {
	id = "015309F4-F925-4280-B0E1-F7184FFCF67B",
	internalName = "Enchance",
	title = "Enchance",
	type = "Develop",
	value = {
		settings = {
			Blacks2012 = -35,
			Clarity2012 = 10,
			Contrast2012 = 10,
			ConvertToGrayscale = false,
			Highlights2012 = -35,
			ProcessVersion = "6.7",
			Saturation = -5,
			Shadows2012 = 10,
			Vibrance = 25,
			Whites2012 = 10,
		},
		uuid = "C83A1BD2-0BE8-4547-B309-0F8CDE3F9312",
	},
	version = 0,
}
